assets/sprite/svg/objects/World_Space_Entre.svg

<svg height="182" viewBox="0 0 1515 182" width="1515" xmlns="http://www.w3.org/2000/svg"><g fill="#a09b38"><path d="m13.63 131.31v-105.91h105.91v15.13h-75.65v30.26h60.52v15.13h-60.52v30.26h75.65v15.13z"/><path d="m134.66 131.31v-105.91h30.26v15.13h15.13v15.13h15.13v15.13h15.13v-45.39h30.26v105.91h-30.26v-30.26h-15.13v-15.13h-15.13v-15.13h-15.13v60.52z"/><path d="m301.09 131.31v-90.78h-30.26v-15.13h90.77v15.13h-30.26v90.78z"/><path d="m376.73 131.31v-105.91h90.78v15.13h15.13v45.39h-30.26v15.13h15.13v15.13h15.13v15.13h-45.39v-15.13h-15.13v-15.13h-15.12v30.26zm30.27-45.39h30.26v-15.13h15.13v-30.26h-45.39z"/><path d="m497.76 131.31v-105.91h105.91v15.13h-75.67v30.26h60.52v15.13h-60.52v30.26h75.65v15.13z"/><path d="m618.8 131.31v-105.91h90.77v15.13h15.13v45.39h-15.13v15.13h-60.51v30.26zm30.26-45.39h45.38v-45.39h-45.38z"/><path d="m739.83 131.31v-105.91h90.78v15.13h15.13v45.39h-30.26v15.13h15.13v15.13h15.13v15.13h-45.39v-15.13h-15.13v-15.13h-15.13v30.26zm30.26-45.39h30.26v-15.13h15.13v-30.26h-45.39z"/><path d="m860.87 131.31v-105.91h105.9v15.13h-75.65v30.26h60.52v15.13h-60.52v30.26h75.65v15.13z"/><path d="m981.9 131.31v-105.91h30.26v15.13h15.13v15.13h15.13v15.13h15.12v-45.39h30.26v105.91h-30.26v-30.26h-15.12v-15.13h-15.13v-15.13h-15.13v60.52z"/><path d="m1102.93 131.31v-105.91h105.91v15.13h-75.65v30.26h60.52v15.13h-60.52v30.26h75.65v15.13z"/><path d="m1239.09 131.31v-15.13h-15.09v-90.78h30.25v90.78h45.39v-90.78h30.26v90.78h-15.13v15.13z"/><path d="m1345 131.31v-105.91h90.77v15.13h15.13v45.39h-30.26v15.13h15.13v15.13h15.13v15.13h-45.38v-15.13h-15.13v-15.13h-15.13v30.26zm30.26-45.39h30.26v-15.13h15.12v-30.26h-45.38z"/></g><path d="m28.63 139.31v-105.91h105.91v15.13h-75.65v30.26h60.52v15.13h-60.52v30.26h75.65v15.13z" fill="#d3cf3d"/><path d="m149.66 139.31v-105.91h30.26v15.13h15.13v15.13h15.13v15.13h15.13v-45.39h30.26v105.91h-30.26v-30.26h-15.13v-15.13h-15.13v-15.13h-15.13v60.52z" fill="#d3cf3d"/><path d="m316.09 139.31v-90.78h-30.26v-15.13h90.77v15.13h-30.26v90.78z" fill="#d3cf3d"/><path d="m391.73 139.31v-105.91h90.78v15.13h15.13v45.39h-30.26v15.13h15.13v15.13h15.13v15.13h-45.39v-15.13h-15.13v-15.13h-15.12v30.26zm30.27-45.39h30.26v-15.13h15.13v-30.26h-45.39z" fill="#d3cf3d"/><path d="m512.76 139.31v-105.91h105.91v15.13h-75.67v30.26h60.52v15.13h-60.52v30.26h75.65v15.13z" fill="#d3cf3d"/><path d="m633.8 139.31v-105.91h90.77v15.13h15.13v45.39h-15.13v15.13h-60.51v30.26zm30.26-45.39h45.38v-45.39h-45.38z" fill="#d3cf3d"/><path d="m754.83 139.31v-105.91h90.78v15.13h15.13v45.39h-30.26v15.13h15.13v15.13h15.13v15.13h-45.39v-15.13h-15.13v-15.13h-15.13v30.26zm30.26-45.39h30.26v-15.13h15.13v-30.26h-45.39z" fill="#d3cf3d"/><path d="m875.87 139.31v-105.91h105.9v15.13h-75.65v30.26h60.52v15.13h-60.52v30.26h75.65v15.13z" fill="#d3cf3d"/><path d="m996.9 139.31v-105.91h30.26v15.13h15.13v15.13h15.13v15.13h15.12v-45.39h30.26v105.91h-30.26v-30.26h-15.12v-15.13h-15.13v-15.13h-15.13v60.52z" fill="#d3cf3d"/><path d="m1117.93 139.31v-105.91h105.91v15.13h-75.65v30.26h60.52v15.13h-60.52v30.26h75.65v15.13z" fill="#d3cf3d"/><path d="m1254.09 139.31v-15.13h-15.09v-90.78h30.25v90.78h45.39v-90.78h30.26v90.78h-15.13v15.13z" fill="#d3cf3d"/><path d="m1360 139.31v-105.91h90.77v15.13h15.13v45.39h-30.26v15.13h15.13v15.13h15.13v15.13h-45.38v-15.13h-15.13v-15.13h-15.13v30.26zm30.26-45.39h30.26v-15.13h15.12v-30.26h-45.38z" fill="#d3cf3d"/><path d="m45.63 152.31v-105.91h105.91v15.13h-75.65v30.26h60.52v15.13h-60.52v30.26h75.65v15.13z" fill="#f7f237"/><path d="m166.66 152.31v-105.91h30.26v15.13h15.13v15.13h15.13v15.13h15.13v-45.39h30.26v105.91h-30.26v-30.26h-15.13v-15.13h-15.13v-15.13h-15.13v60.52z" fill="#f7f237"/><path d="m333.09 152.31v-90.78h-30.26v-15.13h90.77v15.13h-30.26v90.78z" fill="#f7f237"/><path d="m408.73 152.31v-105.91h90.78v15.13h15.13v45.39h-30.26v15.13h15.13v15.13h15.13v15.13h-45.39v-15.13h-15.13v-15.13h-15.12v30.26zm30.27-45.39h30.26v-15.13h15.13v-30.26h-45.39z" fill="#f7f237"/><path d="m529.76 152.31v-105.91h105.91v15.13h-75.67v30.26h60.52v15.13h-60.52v30.26h75.65v15.13z" fill="#f7f237"/><path d="m650.8 152.31v-105.91h90.77v15.13h15.13v45.39h-15.13v15.13h-60.51v30.26zm30.26-45.39h45.38v-45.39h-45.38z" fill="#f7f237"/><path d="m771.83 152.31v-105.91h90.78v15.13h15.13v45.39h-30.26v15.13h15.13v15.13h15.13v15.13h-45.39v-15.13h-15.13v-15.13h-15.13v30.26zm30.26-45.39h30.26v-15.13h15.13v-30.26h-45.39z" fill="#f7f237"/><path d="m892.87 152.31v-105.91h105.9v15.13h-75.65v30.26h60.52v15.13h-60.52v30.26h75.65v15.13z" fill="#f7f237"/><path d="m1013.9 152.31v-105.91h30.26v15.13h15.13v15.13h15.13v15.13h15.12v-45.39h30.26v105.91h-30.26v-30.26h-15.12v-15.13h-15.13v-15.13h-15.13v60.52z" fill="#f7f237"/><path d="m1134.93 152.31v-105.91h105.91v15.13h-75.65v30.26h60.52v15.13h-60.52v30.26h75.65v15.13z" fill="#f7f237"/><path d="m1271.09 152.31v-15.13h-15.09v-90.78h30.25v90.78h45.39v-90.78h30.26v90.78h-15.13v15.13z" fill="#f7f237"/><path d="m1377 152.31v-105.91h90.77v15.13h15.13v45.39h-30.26v15.13h15.13v15.13h15.13v15.13h-45.38v-15.13h-15.13v-15.13h-15.13v30.26zm30.26-45.39h30.26v-15.13h15.12v-30.26h-45.38z" fill="#f7f237"/></svg>

<svg xmlns="http://www.w3.org/2000/svg" width="1515" height="182" viewBox="0 0 1515 182"><title>World_Space</title><g id="Layer_2" data-name="Layer 2"><path d="M13.63,131.31V25.4H119.54V40.53H43.89V70.79h60.52V85.92H43.89v30.26h75.65v15.13Z" style="fill:#a09b38"/><path d="M134.66,131.31V25.4h30.26V40.53h15.13V55.66h15.13V70.79h15.13V25.4h30.26V131.31H210.31V101.05H195.18V85.92H180.05V70.79H164.92v60.52Z" style="fill:#a09b38"/><path d="M301.09,131.31V40.53H270.83V25.4H361.6V40.53H331.34v90.78Z" style="fill:#a09b38"/><path d="M376.73,131.31V25.4h90.78V40.53h15.13V85.92H452.38v15.13h15.13v15.13h15.13v15.13H437.25V116.18H422.12V101.05H407v30.26ZM407,85.92h30.26V70.79h15.13V40.53H407Z" style="fill:#a09b38"/><path d="M497.76,131.31V25.4H603.67V40.53H528V70.79h60.52V85.92H528v30.26h75.65v15.13Z" style="fill:#a09b38"/><path d="M618.8,131.31V25.4h90.77V40.53H724.7V85.92H709.57v15.13H649.06v30.26Zm30.26-45.39h45.38V40.53H649.06Z" style="fill:#a09b38"/><path d="M739.83,131.31V25.4h90.78V40.53h15.13V85.92H815.48v15.13h15.13v15.13h15.13v15.13H800.35V116.18H785.22V101.05H770.09v30.26Zm30.26-45.39h30.26V70.79h15.13V40.53H770.09Z" style="fill:#a09b38"/><path d="M860.87,131.31V25.4h105.9V40.53H891.12V70.79h60.52V85.92H891.12v30.26h75.65v15.13Z" style="fill:#a09b38"/><path d="M981.9,131.31V25.4h30.26V40.53h15.13V55.66h15.13V70.79h15.12V25.4h30.26V131.31h-30.26V101.05h-15.12V85.92h-15.13V70.79h-15.13v60.52Z" style="fill:#a09b38"/><path d="M1102.93,131.31V25.4h105.91V40.53h-75.65V70.79h60.52V85.92h-60.52v30.26h75.65v15.13Z" style="fill:#a09b38"/><path d="M1239.09,131.31V116.18H1224V25.4h30.25v90.78h45.39V25.4h30.26v90.78h-15.13v15.13Z" style="fill:#a09b38"/><path d="M1345,131.31V25.4h90.77V40.53h15.13V85.92h-30.26v15.13h15.13v15.13h15.13v15.13h-45.38V116.18h-15.13V101.05h-15.13v30.26Zm30.26-45.39h30.26V70.79h15.12V40.53h-45.38Z" style="fill:#a09b38"/><path d="M28.63,139.31V33.4H134.54V48.53H58.89V78.79h60.52V93.92H58.89v30.26h75.65v15.13Z" style="fill:#d3cf3d"/><path d="M149.66,139.31V33.4h30.26V48.53h15.13V63.66h15.13V78.79h15.13V33.4h30.26V139.31H225.31V109.05H210.18V93.92H195.05V78.79H179.92v60.52Z" style="fill:#d3cf3d"/><path d="M316.09,139.31V48.53H285.83V33.4H376.6V48.53H346.34v90.78Z" style="fill:#d3cf3d"/><path d="M391.73,139.31V33.4h90.78V48.53h15.13V93.92H467.38v15.13h15.13v15.13h15.13v15.13H452.25V124.18H437.12V109.05H422v30.26ZM422,93.92h30.26V78.79h15.13V48.53H422Z" style="fill:#d3cf3d"/><path d="M512.76,139.31V33.4H618.67V48.53H543V78.79h60.52V93.92H543v30.26h75.65v15.13Z" style="fill:#d3cf3d"/><path d="M633.8,139.31V33.4h90.77V48.53H739.7V93.92H724.57v15.13H664.06v30.26Zm30.26-45.39h45.38V48.53H664.06Z" style="fill:#d3cf3d"/><path d="M754.83,139.31V33.4h90.78V48.53h15.13V93.92H830.48v15.13h15.13v15.13h15.13v15.13H815.35V124.18H800.22V109.05H785.09v30.26Zm30.26-45.39h30.26V78.79h15.13V48.53H785.09Z" style="fill:#d3cf3d"/><path d="M875.87,139.31V33.4h105.9V48.53H906.12V78.79h60.52V93.92H906.12v30.26h75.65v15.13Z" style="fill:#d3cf3d"/><path d="M996.9,139.31V33.4h30.26V48.53h15.13V63.66h15.13V78.79h15.12V33.4h30.26V139.31h-30.26V109.05h-15.12V93.92h-15.13V78.79h-15.13v60.52Z" style="fill:#d3cf3d"/><path d="M1117.93,139.31V33.4h105.91V48.53h-75.65V78.79h60.52V93.92h-60.52v30.26h75.65v15.13Z" style="fill:#d3cf3d"/><path d="M1254.09,139.31V124.18H1239V33.4h30.25v90.78h45.39V33.4h30.26v90.78h-15.13v15.13Z" style="fill:#d3cf3d"/><path d="M1360,139.31V33.4h90.77V48.53h15.13V93.92h-30.26v15.13h15.13v15.13h15.13v15.13h-45.38V124.18h-15.13V109.05h-15.13v30.26Zm30.26-45.39h30.26V78.79h15.12V48.53h-45.38Z" style="fill:#d3cf3d"/><path d="M45.63,152.31V46.4H151.54V61.53H75.89V91.79h60.52v15.13H75.89v30.26h75.65v15.13Z" style="fill:#f7f237"/><path d="M166.66,152.31V46.4h30.26V61.53h15.13V76.66h15.13V91.79h15.13V46.4h30.26V152.31H242.31V122.05H227.18V106.92H212.05V91.79H196.92v60.52Z" style="fill:#f7f237"/><path d="M333.09,152.31V61.53H302.83V46.4H393.6V61.53H363.34v90.78Z" style="fill:#f7f237"/><path d="M408.73,152.31V46.4h90.78V61.53h15.13v45.39H484.38v15.13h15.13v15.13h15.13v15.13H469.25V137.18H454.12V122.05H439v30.26ZM439,106.92h30.26V91.79h15.13V61.53H439Z" style="fill:#f7f237"/><path d="M529.76,152.31V46.4H635.67V61.53H560V91.79h60.52v15.13H560v30.26h75.65v15.13Z" style="fill:#f7f237"/><path d="M650.8,152.31V46.4h90.77V61.53H756.7v45.39H741.57v15.13H681.06v30.26Zm30.26-45.39h45.38V61.53H681.06Z" style="fill:#f7f237"/><path d="M771.83,152.31V46.4h90.78V61.53h15.13v45.39H847.48v15.13h15.13v15.13h15.13v15.13H832.35V137.18H817.22V122.05H802.09v30.26Zm30.26-45.39h30.26V91.79h15.13V61.53H802.09Z" style="fill:#f7f237"/><path d="M892.87,152.31V46.4h105.9V61.53H923.12V91.79h60.52v15.13H923.12v30.26h75.65v15.13Z" style="fill:#f7f237"/><path d="M1013.9,152.31V46.4h30.26V61.53h15.13V76.66h15.13V91.79h15.12V46.4h30.26V152.31h-30.26V122.05h-15.12V106.92h-15.13V91.79h-15.13v60.52Z" style="fill:#f7f237"/><path d="M1134.93,152.31V46.4h105.91V61.53h-75.65V91.79h60.52v15.13h-60.52v30.26h75.65v15.13Z" style="fill:#f7f237"/><path d="M1271.09,152.31V137.18H1256V46.4h30.25v90.78h45.39V46.4h30.26v90.78h-15.13v15.13Z" style="fill:#f7f237"/><path d="M1377,152.31V46.4h90.77V61.53h15.13v45.39h-30.26v15.13h15.13v15.13h15.13v15.13h-45.38V137.18h-15.13V122.05h-15.13v30.26Zm30.26-45.39h30.26V91.79h15.12V61.53h-45.38Z" style="fill:#f7f237"/></g></svg>
